X: 122
T:Missa Missus est Gabriel Angelus / Gloria
N: Derived from Jos1002b-Missa_Missus_est_Gabriel_Angelus-Gloria.krn
C: Josquin des Prez
%%abc-version 2.0
%%abcx-abcm2ps-target-version 5.9.1 (29 Sep 2008)
%%abc-creator hum2abc beta
%%abcx-conversion-date 2019/02/12 16:15:44
%%abc-edited-by Jesse Rodin
%%abc-edited-by Will Watson 07/07/2011
%%abcx-initial-encoding-date 2011/07/07/
%%humdrum-veritas 2436365107
%%humdrum-veritas-data 660940727
%%linebreak <none>
%%barnumbers 0
L: 1/4
M: 2/1
Q: 1/2=120
%%staves [1 2 3 4]
V: 1 clef=treble
V: 2 clef=treble-8
V: 3 clef=treble-8
V: 4 clef=bass
K: F
[V:1] z4D4- | 
[V:2] G6G2 | 
[V:3] z8 | 
[V:4] z8 | 
[V:1] D2D2D4 | 
[V:2] G4d4 | 
[V:3] z8 | 
[V:4] z8 | 
[V:1] A4A4 | 
[V:2] d4z2c2 | 
[V:3] z8 | 
[V:4] z8 | 
[V:1] z2G2A2B2 | 
[V:2] d2e2f2d2 | 
[V:3] z8 | 
[V:4] z8 | 
[V:1] c2A2G2A2 | 
[V:2] c2d2e2f2 | 
[V:3] z8 | 
[V:4] z8 | 
[V:1] B3cd4 | 
[V:2] g4z2g2 | 
[V:3] z8 | 
[V:4] z8 | 
[V:1] z2d2d2d2 | 
[V:2] g2g2d4 | 
[V:3] z8 | 
[V:4] z8 | 
[V:1] A4z2A2 | 
[V:2] z2d2f2d2 | 
[V:3] z8 | 
[V:4] z8 | 
[V:1] c2A2G2A2 | 
[V:2] c2d2G2d2 | 
[V:3] z8 | 
[V:4] z8 | 
[V:1] D2A2A2A2 | 
[V:2] d2d2c2A2 | 
[V:3] z8 | 
[V:4] z8 | 
[V:1] G2E2G4 | 
[V:2] c4B2c2 | 
[V:3] z8 | 
[V:4] z8 | 
[V:1] F2G2A2B2- | 
[V:2] d2e2c2d2- | 
[V:3] z8 | 
[V:4] z4z2G,,2- | 
[V:1] BAG4^F2 | 
[V:2] dcB2A4 | 
[V:3] z8 | 
[V:4] G,,2G,,2D,4 | 
[V:1] G4z4 | 
[V:2] G4z4 | 
[V:3] z4D4- | 
[V:4] E,2E,2F,4- | 
[V:1] z8 | 
[V:2] z8 | 
[V:3] D2D2A4 | 
[V:4] F,2E,D,C,2D,2 | 
[V:1] z8 | 
[V:2] z8 | 
[V:3] B6G2 | 
[V:4] G,,8 | 
[V:1] z8 | 
[V:2] z8 | 
[V:3] A2A2D2A2 | 
[V:4] z2D,2D,2D,2 | 
[V:1] z8 | 
[V:2] z8 | 
[V:3] A2A2c4- | 
[V:4] F,6E,D, | 
[V:1] z8 | 
[V:2] z8 | 
[V:3] c2BAG3A | 
[V:4] C,8 | 
[V:1] z8 | 
[V:2] z8 | 
[V:3] B2A4GF | 
[V:4] D,6D,2 | 
[V:1] z8 | 
[V:2] z8 | 
[V:3] E2D3EFG | 
[V:4] C,2F,4E,D, | 
[V:1] z8 | 
[V:2] z8 | 
[V:3] ABcAB2A2- | 
[V:4] C,4D,4 | 
[V:1] z8 | 
[V:2] z8 | 
[V:3] AGG4^F2 | 
[V:4] G,,4A,,4 | 
[V:1] z8 | 
[V:2] z4d4- | 
[V:3] G4F2G2- | 
[V:4] G,,4z4 | 
[V:1] z8 | 
[V:2] d2d2c2c2 | 
[V:3] GFD2E4 | 
[V:4] z8 | 
[V:1] z8 | 
[V:2] d2f4d2 | 
[V:3] D4z4 | 
[V:4] D,6D,2 | 
[V:1] z8 | 
[V:2] e4f3e/d/ | 
[V:3] z4A4- | 
[V:4] C,2C,2D,2F,2- | 
[V:1] z8 | 
[V:2] c2d3Bc2 | 
[V:3] A2A2G2G2 | 
[V:4] F,2D,2E,4 | 
[V:1] A6A2 | 
[V:2] F2f3ec2 | 
[V:3] A2d3cA2 | 
[V:4] D,4z4 | 
[V:1] G2G2A2c2- | 
[V:2] d2e2f2ed | 
[V:3] B2c2F4- | 
[V:4] z8 | 
[V:1] c2A2B4 | 
[V:2] c2f4ed | 
[V:3] F8 | 
[V:4] z4B,,4 | 
[V:1] G4F4 | 
[V:2] e4d3c | 
[V:3] z4F4 | 
[V:4] C,4D,4 | 
[V:1] z8 | 
[V:2] B4z4 | 
[V:3] G4A4 | 
[V:4] _E,4C,2D,2 | 
[V:1] z8 | 
[V:2] z8 | 
[V:3] B4G2A2- | 
[V:4] G,,3A,,B,,2C,2- | 
[V:1] z8 | 
[V:2] z8 | 
[V:3] ADG4^F2 | 
[V:4] C,B,,G,,2A,,4 | 
[V:1] z8 | 
[V:2] B4c2c2 | 
[V:3] G4z4 | 
[V:4] G,,2G,2F,2E,2 | 
[V:1] F4G2G2 | 
[V:2] d4_e4 | 
[V:3] z8 | 
[V:4] D,4C,4 | 
[V:1] A4B4 | 
[V:2] c2d2G3A | 
[V:3] z8 | 
[V:4] z8 | 
[V:1] G2A3DF2 | 
[V:2] B2c3Ad2- | 
[V:3] z2F4F2 | 
[V:4] z8 | 
[V:1] E4D4 | 
[V:2] d2^c2d4 | 
[V:3] G2A2B4 | 
[V:4] z8 | 
[V:1] D8 | 
[V:2] B8 | 
[V:3] F4F2G2- | 
[V:4] B,,8 | 
[V:1] E4D4 | 
[V:2] G2c2F4 | 
[V:3] G2A4B2- | 
[V:4] C,4D,4 | 
[V:1] G6FE | 
[V:2] (3B2c2d2_e4 | 
[V:3] B2G4A2- | 
[V:4] _E,4C,4 | 
[V:1] F2G4^F2 | 
[V:2] d8- | 
[V:3] ADB2A4 | 
[V:4] D,8 | 
[V:1] G8 | 
[V:2] d4z4 | 
[V:3] G2B4AG | 
[V:4] G,,8 | 
[V:1] z4A4- | 
[V:2] d6d2 | 
[V:3] F6G2 | 
[V:4] D,8- | 
[V:1] A2A2A4 | 
[V:2] d4c3d | 
[V:3] A8 | 
[V:4] D,4z4 | 
[V:1] G3ABcd2- | 
[V:2] efg4fe | 
[V:3] z8 | 
[V:4] z8 | 
[V:1] dcB2A4 | 
[V:2] d2f4ed | 
[V:3] z4A4- | 
[V:4] D,8 | 
[V:1] z4z2B2- | 
[V:2] e3fg4 | 
[V:3] A4G3A | 
[V:4] C,3D,E,F,G,2- | 
[V:1] B2A2G4 | 
[V:2] z4G4 | 
[V:3] Bcd4^c2 | 
[V:4] G,F,D,2E,4 | 
[V:1] F2B4B2 | 
[V:2] A2B3cde | 
[V:3] d4z2d2- | 
[V:4] D,2G,4G,2 | 
[V:1] A2FGABc2- | 
[V:2] f6cd | 
[V:3] d2d2c2A2 | 
[V:4] F,2D,2F,3E, | 
[V:1] cBGAB2G2- | 
[V:2] efg3fd2- | 
[V:3] c3BG2B2 | 
[V:4] C,D,E,F,G,4 | 
[V:1] G2^F2G2B2- | 
[V:2] d4B2d2- | 
[V:3] A4G4 | 
[V:4] D,4G,,2G,2- | 
[V:1] B2B2A2FG | 
[V:2] dcdef4- | 
[V:3] z2d4d2 | 
[V:4] G,2G,2F,2D,2 | 
[V:1] ABc3BGA | 
[V:2] f2cdefg2- | 
[V:3] c2A2c3B | 
[V:4] F,3E,C,D,E,F, | 
[V:1] B2G4^F2 | 
[V:2] gfd4d2 | 
[V:3] G2B2A4 | 
[V:4] G,4D,4 | 
[V:1] G8 ||  
[V:2] d8 ||  
[V:3] G8 ||  
[V:4] G,,8 ||  
[V:1] [M:2/1]F8 | 
[V:2] [M:2/1]d8 | 
[V:3] [M:2/1]A8 | 
[V:4] [M:2/1]D,8 | 
[V:1] G4A4 | 
[V:2] d4f4 | 
[V:3] B4c4 | 
[V:4] G,4F,4 | 
[V:1] B4A4 | 
[V:2] f4f4 | 
[V:3] d4c4 | 
[V:4] B,,4F,4 | 
[V:1] G4G4- | 
[V:2] d4e4 | 
[V:3] B4B4 | 
[V:4] G,4G,4 | 
[V:1] G2^FEF4 | 
[V:2] d8- | 
[V:3] A8 | 
[V:4] D,8 | 
[V:1] G4z4 | 
[V:2] d4z4 | 
[V:3] z4d4 | 
[V:4] G,4F,3E, | 
[V:1] z8 | 
[V:2] z4g4 | 
[V:3] c2B2c2c2 | 
[V:4] F,2G,2E,4 | 
[V:1] d4c2B2 | 
[V:2] f3ef2g2 | 
[V:3] d4z4 | 
[V:4] D,4z4 | 
[V:1] c2c2d4 | 
[V:2] e4d4 | 
[V:3] z8 | 
[V:4] z8 | 
[V:1] A8 | 
[V:2] f8 | 
[V:3] d8 | 
[V:4] D,8 | 
[V:1] G4A4 | 
[V:2] d4f4 | 
[V:3] B4c4 | 
[V:4] G,4F,4 | 
[V:1] B4A4 | 
[V:2] f4f4 | 
[V:3] d4c4 | 
[V:4] B,,4F,4 | 
[V:1] G4G4 | 
[V:2] d4e4 | 
[V:3] B4B4 | 
[V:4] G,4G,4 | 
[V:1] F4z4 | 
[V:2] d4z4 | 
[V:3] A4z4 | 
[V:4] D,8 | 
[V:1] A8- | 
[V:2] e8- | 
[V:3] c8- | 
[V:4] A,8- | 
[V:1] A4A4 | 
[V:2] e4f4 | 
[V:3] c4d4 | 
[V:4] A,4D,4 | 
[V:1] A8 | 
[V:2] f8 | 
[V:3] d8 | 
[V:4] D,8 | 
[V:1] z4A4 | 
[V:2] z4f4 | 
[V:3] z4d4 | 
[V:4] z4D,4 | 
[V:1] B6B2 | 
[V:2] g2fed2_e2- | 
[V:3] d6B2 | 
[V:4] G,6G,2 | 
[V:1] A4G4 | 
[V:2] e2d4c2 | 
[V:3] c2F2G3A | 
[V:4] F,4_E,4 | 
[V:1] F2B4AG | 
[V:2] d2f4_e2 | 
[V:3] BGd4cB | 
[V:4] D,2B,,4C,2 | 
[V:1] F2G4^F2 | 
[V:2] d2c2d3c | 
[V:3] A2G2A4 | 
[V:4] D,2_E,2D,4 | 
[V:1] G8 | 
[V:2] BAB3AG2 | 
[V:3] G8 | 
[V:4] G,,4z2G,2- | 
[V:1] z8 | 
[V:2] B4A4 | 
[V:3] z2d4d2 | 
[V:4] G,2G,2F,2D,2 | 
[V:1] z8 | 
[V:2] z8 | 
[V:3] c2A2B2c2- | 
[V:4] E,2F,2G,2A,2- | 
[V:1] z8 | 
[V:2] z8 | 
[V:3] c2B2A4 | 
[V:4] A,G,G,4^F,2 | 
[V:1] d4c2B2 | 
[V:2] d4f2g2 | 
[V:3] G4z4 | 
[V:4] G,4z4 | 
[V:1] c2c2d4 | 
[V:2] f2e2d4 | 
[V:3] z8 | 
[V:4] z4z2G,2- | 
[V:1] z8 | 
[V:2] z8 | 
[V:3] z2d4d2 | 
[V:4] G,2G,2F,2D,2 | 
[V:1] z8 | 
[V:2] z8 | 
[V:3] c2A2B2c2- | 
[V:4] E,2F,2G,2A,2- | 
[V:1] z8 | 
[V:2] z4z2g2- | 
[V:3] cAd4^c2 | 
[V:4] A,F,G,2E,4 | 
[V:1] z2d4c2 | 
[V:2] g2f2d2f2- | 
[V:3] d4z4 | 
[V:4] D,4z4 | 
[V:1] A2B4AG | 
[V:2] fedcB2f2- | 
[V:3] z4z2d2- | 
[V:4] z2G,4F,2 | 
[V:1] F2A4GF | 
[V:2] f2edc3d | 
[V:3] d2c2A2c2- | 
[V:4] D,2F,4E,D, | 
[V:1] EDG4^F2 | 
[V:2] e2c2d4 | 
[V:3] cBG2A4 | 
[V:4] C,2E,2D,4 | 
[V:1] G4z2d2- | 
[V:2] z2g4f2 | 
[V:3] G4z4 | 
[V:4] G,,4z4 | 
[V:1] d2c2A2B2- | 
[V:2] d2f3edc | 
[V:3] z8 | 
[V:4] z4z2G,2- | 
[V:1] B2AGF2A2- | 
[V:2] B2f4ed | 
[V:3] z2d4c2 | 
[V:4] G,2F,2D,2F,2- | 
[V:1] A2GFEDG2- | 
[V:2] c3de2c2 | 
[V:3] A2c3BG2 | 
[V:4] F,2E,D,C,2E,2 | 
[V:1] G2^FEF4 | 
[V:2] d8 | 
[V:3] B3cA4 | 
[V:4] D,8 | 
[V:1] G4z4 | 
[V:2] d4z4 | 
[V:3] G4z4 | 
[V:4] G,,4z4 | 
[V:1] G8 | 
[V:2] d8 | 
[V:3] B8 | 
[V:4] G,8 | 
[V:1] A8 | 
[V:2] f8 | 
[V:3] c8 | 
[V:4] F,8 | 
[V:1] G8 | 
[V:2] e8 | 
[V:3] c8 | 
[V:4] C,8 | 
[V:1] F8 | 
[V:2] d8 | 
[V:3] A2B4AG | 
[V:4] D,8- | 
[V:1] z2F2FGAB | 
[V:2] z4d4 | 
[V:3] A8 | 
[V:4] D,8 | 
[V:1] c2BAG2B2 | 
[V:2] _e6d2 | 
[V:3] z8 | 
[V:4] z8 | 
[V:1] A2G4^F2 | 
[V:2] c2B2A4 | 
[V:3] z4d4 | 
[V:4] z4D,4 | 
[V:1] G8 | 
[V:2] G4z4 | 
[V:3] c2BAG2B2 | 
[V:4] _E,6D,2 | 
[V:1] z4A4 | 
[V:2] c4c2c2 | 
[V:3] A2G4^F2 | 
[V:4] C,2B,,2A,,4 | 
[V:1] B6A2 | 
[V:2] B3cdefd | 
[V:3] G4z2F2 | 
[V:4] G,,4z4 | 
[V:1] G3FE2E2 | 
[V:2] e2d4^c2 | 
[V:3] G2G2A2A2 | 
[V:4] z8 | 
[V:1] DEFGA3B | 
[V:2] d3ef2ed | 
[V:3] D4z2d2 | 
[V:4] z8 | 
[V:1] c2BAG2B2 | 
[V:2] c6d2 | 
[V:3] _e6d2 | 
[V:4] z8 | 
[V:1] A2G4^F2 | 
[V:2] e2d6 | 
[V:3] c2B2A2A2 | 
[V:4] z4D,4 | 
[V:1] G8 | 
[V:2] B2c3GB2 | 
[V:3] G8 | 
[V:4] _E,6D,2 | 
[V:1] z4c4 | 
[V:2] A2G4^F2 | 
[V:3] z4A4 | 
[V:4] C,2B,,2A,,2A,,2 | 
[V:1] B3AG2F2 | 
[V:2] G2d2d2c2 | 
[V:3] B6A2 | 
[V:4] G,,4z4 | 
[V:1] B2A4G2- | 
[V:2] B2c2c2G2 | 
[V:3] G2F2E2E2 | 
[V:4] z8 | 
[V:1] G2^FEF4 | 
[V:2] B4A4 | 
[V:3] D4z4 | 
[V:4] D,8 | 
[V:1] G8 |]  
[V:2] G8 |]  
[V:3] z2D2D4 |]  
[V:4] G,,8 |]  



